X:1     %Music
T:The Morrismen
B:Singing Together, Summer 1971, BBC Publications
F:http://www.folkinfo.org/songs
M:6/8     %Meter
L:1/8     %
K:Bb
B2 c d2 d |d2 A A3 |B2 A G2 G |F2 D D3 |
w:Come and see the Mor-ris men, Danc-ing, danc-ing down the glen, 
B2 c d2 d |d2 A A2 d |B2 G A2 A |G3 G2 
w:May be eight or nine or ten; Oh, hear the fid-dler play-ing; 
E |D2 D F2 F |G3 G3 |]
w:They're  go-ing to the May-ing.